X: 21402
T: THE QUEEN'S TRIUMPH -- Reel
R: reel
B: K\"ohler's Violin Repository, v.2, 1885 p.140 #2
F: http://www.archive.org/details/klersviolinrepos02rugg
Z: 2012 John Chambers <jc:trillian.mit.edu>
M: C|
L: 1/8
K: A
uc | efec f2e2 | efec dBBd | efec f2e2 | fdBe cAA :|
ug | a2ag f2eg | afec dBBg | a2ae f2eg | fdBe cAA |]
 g | a2ag f2eg | afec dBBg | a2af b2ba | gefg "_D.C."a2a "_Fine."|]

%%sep 2 1 500

